public/icons/calendar.svg

<svg viewBox="0 0 24 24" fill="none" xmlns="http://www.w3.org/2000/svg"><g id="SVGRepo_bgCarrier" stroke-width="0"></g><g id="SVGRepo_tracerCarrier" stroke-linecap="round" stroke-linejoin="round"></g><g id="SVGRepo_iconCarrier"> <path d="M6.94028 2C7.35614 2 7.69326 2.32421 7.69326 2.72414V4.18487C8.36117 4.17241 9.10983 4.17241 9.95219 4.17241H13.9681C14.8104 4.17241 15.5591 4.17241 16.227 4.18487V2.72414C16.227 2.32421 16.5641 2 16.98 2C17.3958 2 17.733 2.32421 17.733 2.72414V4.24894C19.178 4.36022 20.1267 4.63333 20.8236 5.30359C21.5206 5.97385 21.8046 6.88616 21.9203 8.27586L22 9H2.92456H2V8.27586C2.11571 6.88616 2.3997 5.97385 3.09665 5.30359C3.79361 4.63333 4.74226 4.36022 6.1873 4.24894V2.72414C6.1873 2.32421 6.52442 2 6.94028 2Z" fill="#E74C3C"></path> <path opacity="1" d="M21.9995 14.0001V12.0001C21.9995 11.161 21.9963 9.66527 21.9834 9H2.00917C1.99626 9.66527 1.99953 11.161 1.99953 12.0001V14.0001C1.99953 17.7713 1.99953 19.6569 3.1711 20.8285C4.34267 22.0001 6.22829 22.0001 9.99953 22.0001H13.9995C17.7708 22.0001 19.6564 22.0001 20.828 20.8285C21.9995 19.6569 21.9995 17.7713 21.9995 14.0001Z" fill="#F9F9F9" stroke="gray" stroke-width="0.1"></path> </g></svg>

<svg viewBox="0 0 24 24" fill="none" xmlns="http://www.w3.org/2000/svg">
<path d="M6.94 2c.416 0 .753.324.753.724v1.46c.668-.012 1.417-.012 2.26-.012h4.015c.842 0 1.591 0 2.259.013v-1.46c0-.4.337-.725.753-.725s.753.324.753.724V4.25c1.445.111 2.394.384 3.09 1.055.698.67.982 1.582 1.097 2.972L22 9H2v-.724c.116-1.39.4-2.302 1.097-2.972.697-.67 1.645-.944 3.09-1.055V2.724c0-.4.337-.724.753-.724Z" fill="#E74C3C"/>
<path d="M22 14v-2c0-.839-.004-2.335-.017-3H2.01c-.013.665-.01 2.161-.01 3v2c0 3.771 0 5.657 1.172 6.828C4.343 22 6.228 22 10 22h4c3.77 0 5.656 0 6.828-1.172C22 19.657 22 17.771 22 14Z" fill="#F9F9F9" stroke="gray" stroke-width=".1"/>
</svg>
